apps/scalable/franz.svg

<svg xmlns="http://www.w3.org/2000/svg" style="isolation:isolate" width="256" height="256"><defs><filter id="a" width="270.648" height="254.338" x="-7.32" y="2.95" filterUnits="userSpaceOnUse"><feGaussianBlur xmlns="http://www.w3.org/2000/svg" in="SourceGraphic" stdDeviation="4.294"/><feOffset xmlns="http://www.w3.org/2000/svg" dy="4" result="pf_100_offsetBlur"/><feFlood xmlns="http://www.w3.org/2000/svg" flood-opacity=".4"/><feComposite xmlns="http://www.w3.org/2000/svg" in2="pf_100_offsetBlur" operator="in" result="pf_100_dropShadow"/><feBlend xmlns="http://www.w3.org/2000/svg" in="SourceGraphic" in2="pf_100_dropShadow"/></filter></defs><path fill="#5884F4" d="M165.685 11.947c74.055 0 84.639 10.557 84.639 84.544v59.251c0 73.986-10.584 84.543-84.639 84.543h-75.37c-74.055 0-84.639-10.557-84.639-84.543V96.491c0-73.987 10.584-84.544 84.639-84.544h75.37z" filter="url(#a)"/><g opacity=".4"><linearGradient id="b" x1=".517" x2=".517" y2="1"><stop offset="0%" stop-color="#fff"/><stop offset="12.5%" stop-opacity=".098" stop-color="#fff"/><stop offset="92.5%" stop-opacity=".098"/><stop offset="100%" stop-opacity=".498"/></linearGradient><path fill="none" stroke="url(#b)" stroke-linecap="round" stroke-linejoin="round" stroke-width="4.077" d="M165.685 11.947c74.055 0 84.639 10.557 84.639 84.544v59.251c0 73.986-10.584 84.543-84.639 84.543h-75.37c-74.055 0-84.639-10.557-84.639-84.543V96.491c0-73.987 10.584-84.544 84.639-84.544h75.37z" vector-effect="non-scaling-stroke"/></g><path fill="#FFF" d="M249.643 83.58L44.234 236.61c11.562 2.311 26.426 3.019 45.523 3.019h75.37c74.055 0 84.639-10.558 84.639-84.544V95.834c0-4.303-.041-8.37-.123-12.254z" opacity=".1"/><defs><filter id="c" width="163.156" height="99.221" x="46.42" y="78.39" filterUnits="userSpaceOnUse"><feGaussianBlur xmlns="http://www.w3.org/2000/svg" stdDeviation=".678"/></filter></defs><path d="M72.527 173.345c-3.689-2.585-10.019-12.622-8.756-13.885.327-.327 8.228-.139 17.559.418l16.965 1.013v5.495c0 3.023-.941 6.438-2.092 7.588-3.037 3.038-19.049 2.612-23.676-.629zm88.866.629c-1.151-1.151-2.092-4.681-2.092-7.844v-5.752l10.023-.074c5.512-.043 13.356-.721 17.43-1.509 4.364-.845 7.408-.778 7.408.163 0 3.299-5.353 11.769-9.093 14.389-4.627 3.241-20.639 3.666-23.676.629v-.002zm-95.052-24.811c-10.065-2.705-17.528-7.88-18.244-12.651-.47-3.134.461-3.464 9.587-3.397 12.608.095 18.923-3.066 33.052-16.532 11.837-11.282 13.714-11.774 27.886-7.307 8.72 2.749 9.89 2.749 18.609 0 5.117-1.613 11.007-2.932 13.09-2.932 2.264 0 8.966 4.803 16.677 11.953 14.031 13.009 23.664 17.077 35.281 14.897 5.692-1.067 6.086-.859 5.542 2.935-1.238 8.622-18.888 15.533-39.671 15.533-12.24 0-22.071-3.242-32.465-10.706l-7.758-5.572-7.759 5.572c-4.268 3.065-11.033 6.727-15.035 8.139-8.829 3.115-27.335 3.148-38.792.064v.004zm-3.632-45.81c.657-12.256 1.523-22.653 1.926-23.105 1.506-1.689 3.819 4.426 5.869 15.517 1.163 6.298 3.253 13.697 4.643 16.444 2.891 5.711 2.149 6.84-7.007 10.662l-6.624 2.766 1.193-22.284zm123.18 18.728l-7.401-3.36 3.284-5.753c1.807-3.164 4.219-10.905 5.361-17.203 2.005-11.06 4.316-17.22 5.822-15.517 1.384 1.567 2.998 45.269 1.67 45.231-.734-.023-4.665-1.55-8.736-3.398z" opacity=".3" filter="url(#c)"/><path fill="#FFF" d="M72.527 173.345c-3.689-2.585-10.019-12.622-8.756-13.885.327-.327 8.228-.139 17.559.418l16.965 1.013v5.495c0 3.023-.941 6.438-2.092 7.588-3.037 3.038-19.049 2.612-23.676-.629zm88.866.629c-1.151-1.151-2.092-4.681-2.092-7.844v-5.752l10.023-.074c5.512-.043 13.356-.721 17.43-1.509 4.364-.845 7.408-.778 7.408.163 0 3.299-5.353 11.769-9.093 14.389-4.627 3.241-20.639 3.666-23.676.629v-.002zm-95.052-24.811c-10.065-2.705-17.528-7.88-18.244-12.651-.47-3.134.461-3.464 9.587-3.397 12.608.095 18.923-3.066 33.052-16.532 11.837-11.282 13.714-11.774 27.886-7.307 8.72 2.749 9.89 2.749 18.609 0 5.117-1.613 11.007-2.932 13.09-2.932 2.264 0 8.966 4.803 16.677 11.953 14.031 13.009 23.664 17.077 35.281 14.897 5.692-1.067 6.086-.859 5.542 2.935-1.238 8.622-18.888 15.533-39.671 15.533-12.24 0-22.071-3.242-32.465-10.706l-7.758-5.572-7.759 5.572c-4.268 3.065-11.033 6.727-15.035 8.139-8.829 3.115-27.335 3.148-38.792.064v.004zm-3.632-45.81c.657-12.256 1.523-22.653 1.926-23.105 1.506-1.689 3.819 4.426 5.869 15.517 1.163 6.298 3.253 13.697 4.643 16.444 2.891 5.711 2.149 6.84-7.007 10.662l-6.624 2.766 1.193-22.284zm123.18 18.728l-7.401-3.36 3.284-5.753c1.807-3.164 4.219-10.905 5.361-17.203 2.005-11.06 4.316-17.22 5.822-15.517 1.384 1.567 2.998 45.269 1.67 45.231-.734-.023-4.665-1.55-8.736-3.398z"/></svg>

<svg xmlns="http://www.w3.org/2000/svg" style="isolation:isolate" width="256" height="256" viewBox="0 0 256 256">
 <defs>
  <filter id="UpKlmwykE3gvUmwl4ZWmgBnhSqMQ4LaC" width="270.648" height="254.338" x="-7.32" y="2.95" filterUnits="userSpaceOnUse">
   <feGaussianBlur xmlns="http://www.w3.org/2000/svg" in="SourceGraphic" stdDeviation="4.294"/>
   <feOffset xmlns="http://www.w3.org/2000/svg" dx="0" dy="4" result="pf_100_offsetBlur"/>
   <feFlood xmlns="http://www.w3.org/2000/svg" flood-opacity=".4"/>
   <feComposite xmlns="http://www.w3.org/2000/svg" in2="pf_100_offsetBlur" operator="in" result="pf_100_dropShadow"/>
   <feBlend xmlns="http://www.w3.org/2000/svg" in="SourceGraphic" in2="pf_100_dropShadow" mode="normal"/>
  </filter>
 </defs>
 <g filter="url(#UpKlmwykE3gvUmwl4ZWmgBnhSqMQ4LaC)">
  <path fill="#5884F4" d="M 165.685 11.947 C 239.74 11.947 250.324 22.504 250.324 96.491 L 250.324 155.742 C 250.324 229.728 239.74 240.285 165.685 240.285 L 90.315 240.285 C 16.26 240.285 5.676 229.728 5.676 155.742 L 5.676 96.491 C 5.676 22.504 16.26 11.947 90.315 11.947 L 165.685 11.947 Z"/>
 </g>
 <g opacity=".4">
  <linearGradient id="_lgradient_52" x1=".517" x2=".517" y1="0" y2="1">
   <stop offset="0%" style="stop-color:rgb(255,255,255)"/>
   <stop offset="12.5%" stop-opacity=".098" style="stop-color:rgb(255,255,255)"/>
   <stop offset="92.5%" stop-opacity=".098" style="stop-color:rgb(0,0,0)"/>
   <stop offset="100%" stop-opacity=".498" style="stop-color:rgb(0,0,0)"/>
  </linearGradient>
  <path fill="none" stroke="url(#_lgradient_52)" stroke-linecap="round" stroke-linejoin="round" stroke-width="4.077" d="M 165.685 11.947 C 239.74 11.947 250.324 22.504 250.324 96.491 L 250.324 155.742 C 250.324 229.728 239.74 240.285 165.685 240.285 L 90.315 240.285 C 16.26 240.285 5.676 229.728 5.676 155.742 L 5.676 96.491 C 5.676 22.504 16.26 11.947 90.315 11.947 L 165.685 11.947 Z" vector-effect="non-scaling-stroke"/>
 </g>
 <g opacity=".1">
  <path fill="#FFFFFF" d="M 249.643 83.58 L 44.234 236.61 C 55.796 238.921 70.66 239.629 89.757 239.629 L 165.127 239.629 C 239.182 239.629 249.766 229.071 249.766 155.085 L 249.766 95.834 C 249.766 91.531 249.725 87.464 249.643 83.58 L 249.643 83.58 Z"/>
 </g>
 <g>
  <defs>
   <filter id="fjF73T3glVdFiNnirq6cf9eVMVVlo720" width="163.156" height="99.221" x="46.42" y="78.39" filterUnits="userSpaceOnUse">
    <feGaussianBlur xmlns="http://www.w3.org/2000/svg" stdDeviation=".678"/>
   </filter>
  </defs>
  <g opacity=".3" filter="url(#fjF73T3glVdFiNnirq6cf9eVMVVlo720)">
   <path d="M 72.527 173.345 C 68.838 170.76 62.508 160.723 63.771 159.46 C 64.098 159.133 71.999 159.321 81.33 159.878 L 98.295 160.891 L 98.295 166.386 C 98.295 169.409 97.354 172.824 96.203 173.974 C 93.166 177.012 77.154 176.586 72.527 173.345 L 72.527 173.345 Z M 161.393 173.974 C 160.242 172.823 159.301 169.293 159.301 166.13 L 159.301 160.378 L 169.324 160.304 C 174.836 160.261 182.68 159.583 186.754 158.795 C 191.118 157.95 194.162 158.017 194.162 158.958 C 194.162 162.257 188.809 170.727 185.069 173.347 C 180.442 176.588 164.43 177.013 161.393 173.976 L 161.393 173.974 Z M 66.341 149.163 C 56.276 146.458 48.813 141.283 48.097 136.512 C 47.627 133.378 48.558 133.048 57.684 133.115 C 70.292 133.21 76.607 130.049 90.736 116.583 C 102.573 105.301 104.45 104.809 118.622 109.276 C 127.342 112.025 128.512 112.025 137.231 109.276 C 142.348 107.663 148.238 106.344 150.321 106.344 C 152.585 106.344 159.287 111.147 166.998 118.297 C 181.029 131.306 190.662 135.374 202.279 133.194 C 207.971 132.127 208.365 132.335 207.821 136.129 C 206.583 144.751 188.933 151.662 168.15 151.662 C 155.91 151.662 146.079 148.42 135.685 140.956 L 127.927 135.384 L 120.168 140.956 C 115.9 144.021 109.135 147.683 105.133 149.095 C 96.304 152.21 77.798 152.243 66.341 149.159 L 66.341 149.163 Z M 62.709 103.353 C 63.366 91.097 64.232 80.7 64.635 80.248 C 66.141 78.559 68.454 84.674 70.504 95.765 C 71.667 102.063 73.757 109.462 75.147 112.209 C 78.038 117.92 77.296 119.049 68.14 122.871 L 61.516 125.637 L 62.709 103.353 Z M 185.889 122.081 L 178.488 118.721 L 181.772 112.968 C 183.579 109.804 185.991 102.063 187.133 95.765 C 189.138 84.705 191.449 78.545 192.955 80.248 C 194.339 81.815 195.953 125.517 194.625 125.479 C 193.891 125.456 189.96 123.929 185.889 122.081 Z"/>
  </g>
  <path fill="#FFFFFF" d="M 72.527 173.345 C 68.838 170.76 62.508 160.723 63.771 159.46 C 64.098 159.133 71.999 159.321 81.33 159.878 L 98.295 160.891 L 98.295 166.386 C 98.295 169.409 97.354 172.824 96.203 173.974 C 93.166 177.012 77.154 176.586 72.527 173.345 L 72.527 173.345 Z M 161.393 173.974 C 160.242 172.823 159.301 169.293 159.301 166.13 L 159.301 160.378 L 169.324 160.304 C 174.836 160.261 182.68 159.583 186.754 158.795 C 191.118 157.95 194.162 158.017 194.162 158.958 C 194.162 162.257 188.809 170.727 185.069 173.347 C 180.442 176.588 164.43 177.013 161.393 173.976 L 161.393 173.974 Z M 66.341 149.163 C 56.276 146.458 48.813 141.283 48.097 136.512 C 47.627 133.378 48.558 133.048 57.684 133.115 C 70.292 133.21 76.607 130.049 90.736 116.583 C 102.573 105.301 104.45 104.809 118.622 109.276 C 127.342 112.025 128.512 112.025 137.231 109.276 C 142.348 107.663 148.238 106.344 150.321 106.344 C 152.585 106.344 159.287 111.147 166.998 118.297 C 181.029 131.306 190.662 135.374 202.279 133.194 C 207.971 132.127 208.365 132.335 207.821 136.129 C 206.583 144.751 188.933 151.662 168.15 151.662 C 155.91 151.662 146.079 148.42 135.685 140.956 L 127.927 135.384 L 120.168 140.956 C 115.9 144.021 109.135 147.683 105.133 149.095 C 96.304 152.21 77.798 152.243 66.341 149.159 L 66.341 149.163 Z M 62.709 103.353 C 63.366 91.097 64.232 80.7 64.635 80.248 C 66.141 78.559 68.454 84.674 70.504 95.765 C 71.667 102.063 73.757 109.462 75.147 112.209 C 78.038 117.92 77.296 119.049 68.14 122.871 L 61.516 125.637 L 62.709 103.353 Z M 185.889 122.081 L 178.488 118.721 L 181.772 112.968 C 183.579 109.804 185.991 102.063 187.133 95.765 C 189.138 84.705 191.449 78.545 192.955 80.248 C 194.339 81.815 195.953 125.517 194.625 125.479 C 193.891 125.456 189.96 123.929 185.889 122.081 Z"/>
 </g>
</svg>
